assets/icons/uE018-map.svg

<svg xmlns="http://www.w3.org/2000/svg" width="896" height="1232" viewBox="0 0 896 1232"><path d="M863 173q33 15 33 51v672q0 30-25 47-15 9-31 9-10 0-23-5L587 845 329 948q-9 4-21 4-14 0-26-6L30 817Q0 800 0 767V112q0-30 25-47 15-9 31-9 10 0 23 5l230 102L567 60q9-4 21-4 10 0 23 5zm-303-50l-224 90v672l224-90V123zM56 767l252 129V224L56 112v655zm784 129V224L588 112v672z"/></svg>

<?xml version="1.0" encoding="UTF-8" standalone="no"?><svg   xmlns:svg="http://www.w3.org/2000/svg"   xmlns="http://www.w3.org/2000/svg"   version="1.1"   width="896"   height="1232"   viewBox="0 0 896 1232">  <path     d="M863 173Q896 188 896 224V896Q896 926 871 943Q856 952 840 952Q830 952 817 947L587 845L329 948Q320 952 308 952Q294 952 282 946L30 817Q0 800 0 767V112Q0 82 25 65Q40 56 56 56Q66 56 79 61L309 163L567 60Q576 56 588 56Q598 56 611 61zM560 123L336 213V885L560 795V123zM56 767L308 896V224L56 112V767zM840 896V224L588 112V784z"     id="icon141" /></svg>
